exported-svg/phone-call.svg

<svg height="24" viewBox="0 0 24 24" width="24" xmlns="http://www.w3.org/2000/svg"><path d="m14.6964466 6.35355339c-.3489482-.34894826-.0350545-.93880008.4493003-.8443003 2.1977884.42879832 3.9162017 2.14721157 4.345 4.345.0944998.48435481-.495352.79824851-.8443003.44930031zm.0002226-3.99977757c-.3345246-.33410376-.0613638-.90292095.4085372-.85071873 4.4117454.49010947 7.8960047 3.96998606 8.3916666 8.38111111.0527937.4698349-.5156793.7437114-.8502038.4096076zm7.4711532 6.04843113c-.8313025-2.6558006-2.9221383-4.74400647-5.5789831-5.57196554zm.3321735 12.51576355c.0028572.7039314-.2911901 1.376448-.8099027 1.8523311-.5187126.4758832-1.2140174.7110291-1.9241044.6467726-3.1549116-.3428069-6.1854263-1.4208695-8.8441495-3.1450673-2.47812504-1.5747037-4.57914245-3.6757212-6.15147924-6.1501571-1.73272083-2.674708-2.81102827-5.71996059-3.14833092-8.89684958-.06315849-.69890958.17034001-1.39218447.64345722-1.91047368.47308235-.51825101 1.14220728-.8138408 1.84451364-.81462486l2.99512814.00002374c1.25482237-.01222723 2.3243312.90758719 2.50057905 2.15469584.12169221.92268068.34737432 1.82863315.67231901 2.6994483.3434187.91359379.1237688 1.94350783-.56447281 2.63948383l-.99713942.99713941c1.30535733 2.1701671 3.12272753 3.987537 5.29289473 5.2928941l.9991217-.9991131c.6939922-.6862688 1.7239063-.9059187 2.636372-.5629224.8719432.3253671 1.7778957.5510492 2.7050438.6733511 1.2547937.1770207 2.1783095 1.2647439 2.1501538 2.5309605zm-.9999959-2.9979705.0001538-.0124025c.0188926-.7614056-.5358279-1.4161048-1.2855325-1.5218903-.9974523-.1315538-1.9768207-.3755246-2.9205517-.727681-.5481563-.2060513-1.1661047-.0742614-1.5805162.3355272l-1.27 1.27c-.1591565.1591565-.4050387.1923503-.6007007.0810939-2.5817816-1.4680416-4.71945837-3.6057184-6.18749995-6.1875-.11125645-.195662-.07806264-.4415442.08109386-.6007007l1.26802724-1.26801616c.4117613-.4163953.54355125-1.03434373.33707753-1.58362802-.35173398-.94260307-.59570475-1.92197146-.72663056-2.91482664-.10537373-.74551989-.74710935-1.29743462-1.50492082-1.29014686h-2.99944157c-.421123.00054278-.82264808.1779188-1.10651323.48888665-.28387033.31097353-.42396943.72693846-.38684083 1.13848464.31994985 3.0128997 1.34511251 5.90806589 2.99480252 8.45463909 1.49596856 2.3542187 3.4919351 4.3501853 5.85004371 5.8486509 2.5313852 1.6415941 5.4125399 2.666524 8.4029535 2.9915393.420648.0380161.8378308-.1030715 1.1490584-.3886014.3112276-.2855298.487656-.6890398.4859375-1.1134281z"/></svg>

<?xml version="1.0" encoding="UTF-8"?>
<svg width="24px" height="24px" viewBox="0 0 24 24" version="1.1" xmlns="http://www.w3.org/2000/svg" xmlns:xlink="http://www.w3.org/1999/xlink">
    <!-- Generator: Sketch 55.2 (78181) - https://sketchapp.com -->
    <title>phone-call</title>
    <desc>Created with Sketch.</desc>
    <g id="phone-call" stroke="none" stroke-width="1" fill="none" fill-rule="evenodd">
        <path d="M14.6964466,6.35355339 C14.3474984,6.00460513 14.6613921,5.41475331 15.1457469,5.50925309 C17.3435353,5.93805141 19.0619486,7.65646466 19.4907469,9.85425309 C19.5852467,10.3386079 18.9953949,10.6525016 18.6464466,10.3035534 L14.6964466,6.35355339 Z M14.6966692,2.35377582 C14.3621446,2.01967206 14.6353054,1.45085487 15.1052064,1.50305709 C19.5169518,1.99316656 23.0012111,5.47304315 23.496873,9.8841682 C23.5496667,10.3540031 22.9811937,10.6278796 22.6466692,10.2937758 L14.6966692,2.35377582 Z M22.1678224,8.40220695 C21.3365199,5.74640635 19.2456841,3.65820048 16.5888393,2.83024141 L22.1678224,8.40220695 Z M22.4999959,20.9179705 C22.5028531,21.6219019 22.2088058,22.2944185 21.6900932,22.7703016 C21.1713806,23.2461848 20.4760758,23.4813307 19.7659888,23.4170742 C16.6110772,23.0742673 13.5805625,21.9962047 10.9218393,20.2720069 C8.44371426,18.6973032 6.34269685,16.5962857 4.77036006,14.1218498 C3.03763923,11.4471418 1.95933179,8.40188921 1.62202914,5.22500022 C1.55887065,4.52609064 1.79236915,3.83281575 2.26548636,3.31452654 C2.73856871,2.79627553 3.40769364,2.50068574 4.11,2.49990168 L7.10512814,2.49992542 C8.35995051,2.48769819 9.42945934,3.40751261 9.60570719,4.65462126 C9.7273994,5.57730194 9.95308151,6.48325441 10.2780262,7.35406956 C10.6214449,8.26766335 10.401795,9.29757739 9.71355339,9.99355339 L8.71641397,10.9906928 C10.0217713,13.1608599 11.8391415,14.9782298 14.0093087,16.2835869 L15.0084304,15.2844738 C15.7024226,14.598205 16.7323367,14.3785551 17.6448024,14.7215514 C18.5167456,15.0469185 19.4226981,15.2726006 20.3498462,15.3949025 C21.6046399,15.5719232 22.5281557,16.6596464 22.5,17.925863 L22.4999959,20.9179705 Z M21.5,17.92 L21.5001538,17.9075975 C21.5190464,17.1461919 20.9643259,16.4914927 20.2146213,16.3857072 C19.217169,16.2541534 18.2378006,16.0101826 17.2940696,15.6580262 C16.7459133,15.4519749 16.1279649,15.5837648 15.7135534,15.9935534 L14.4435534,17.2635534 C14.2843969,17.4227099 14.0385147,17.4559037 13.8428527,17.3446473 C11.2610711,15.8766057 9.12339433,13.7389289 7.65535275,11.1571473 C7.5440963,10.9614853 7.57729011,10.7156031 7.73644661,10.5564466 L9.00447385,9.28843044 C9.41623515,8.87203514 9.5480251,8.25408671 9.34155138,7.70480242 C8.9898174,6.76219935 8.74584663,5.78283096 8.61492082,4.78997578 C8.50954709,4.04445589 7.86781147,3.49254116 7.11,3.49982892 L4.11055843,3.49982892 C3.68943543,3.5003717 3.28791035,3.67774772 3.0040452,3.98871557 C2.72017487,4.2996891 2.58007577,4.71565403 2.61720437,5.12720021 C2.93715422,8.14009991 3.96231688,11.0352661 5.61200689,13.5818393 C7.10797545,15.936058 9.10394199,17.9320246 11.4620506,19.4304902 C13.9934358,21.0720843 16.8745905,22.0970142 19.8650041,22.4220295 C20.2856521,22.4600456 20.7028349,22.318958 21.0140625,22.0334281 C21.3252901,21.7478983 21.5017185,21.3443883 21.5,20.92 L21.5,17.92 Z" id="Shape" fill="#000000" fill-rule="nonzero"></path>
    </g>
</svg>
